assets/icons/network/transmit.svg

<?xml version="1.0" encoding="UTF-8" standalone="no"?>
<svg
   viewBox="0 0 24 24"
   height="24"
   id="svg7384"
   version="1.1"
   width="24"
   sodipodi:docname="send.svg"
   inkscape:version="1.2 (1:1.2.1+202207142221+cd75a1ee6d)"
   xmlns:inkscape="http://www.inkscape.org/namespaces/inkscape"
   xmlns:sodipodi="http://sodipodi.sourceforge.net/DTD/sodipodi-0.dtd"
   xmlns="http://www.w3.org/2000/svg"
   xmlns:svg="http://www.w3.org/2000/svg"
   xmlns:rdf="http://www.w3.org/1999/02/22-rdf-syntax-ns#"
   xmlns:cc="http://creativecommons.org/ns#"
   xmlns:dc="http://purl.org/dc/elements/1.1/">
  <sodipodi:namedview
     id="namedview22"
     pagecolor="#ffffff"
     bordercolor="#666666"
     borderopacity="1.0"
     inkscape:pageshadow="2"
     inkscape:pageopacity="0.0"
     inkscape:pagecheckerboard="0"
     showgrid="true"
     inkscape:zoom="39.59783"
     inkscape:cx="9.6217394"
     inkscape:cy="12.210265"
     inkscape:window-width="1920"
     inkscape:window-height="1016"
     inkscape:window-x="0"
     inkscape:window-y="0"
     inkscape:window-maximized="1"
     inkscape:current-layer="svg7384"
     inkscape:showpageshadow="2"
     inkscape:deskcolor="#d1d1d1">
    <inkscape:grid
       type="xygrid"
       id="grid463" />
  </sodipodi:namedview>
  <metadata
     id="metadata20854">
    <rdf:RDF>
      <cc:Work
         rdf:about="">
        <dc:format>image/svg+xml</dc:format>
        <dc:type
           rdf:resource="http://purl.org/dc/dcmitype/StillImage" />
      </cc:Work>
    </rdf:RDF>
  </metadata>
  <defs
     id="defs7386">
    <linearGradient
       id="linearGradient5606"
       inkscape:swatch="solid">
      <stop
         id="stop5608"
         offset="0"
         style="stop-color:#000000;stop-opacity:1;" />
    </linearGradient>
    <linearGradient
       id="linearGradient4526"
       inkscape:swatch="solid">
      <stop
         id="stop4528"
         offset="0"
         style="stop-color:#ffffff;stop-opacity:1;" />
    </linearGradient>
    <linearGradient
       id="linearGradient3600-4"
       inkscape:swatch="gradient">
      <stop
         id="stop3602-7"
         offset="0"
         style="stop-color:#f4f4f4;stop-opacity:1" />
      <stop
         id="stop3604-6"
         offset="1"
         style="stop-color:#dbdbdb;stop-opacity:1" />
    </linearGradient>
  </defs>
  <path
     id="path571"
     style="color:#000000;fill:#808080;-inkscape-stroke:none"
     d="M 14.601562 2.0039062 L 14.208984 2.5058594 C 14.208984 2.5058594 13.421484 3.5140421 9.953125 8.203125 L 9.3632812 9 L 12 9 L 12 13 L 12.25 13 L 12.25 15.75 L 14.148438 15.75 C 11.409801 19.445835 10.465552 20.683321 10.398438 20.769531 C 10.331508 20.683631 9.3856956 19.446507 6.6464844 15.75 L 8.75 15.75 L 8.75 10 L 8.25 10 L 8.25 15.25 L 5.6523438 15.25 L 5.9472656 15.648438 C 9.415043 20.336737 10.201172 21.339844 10.201172 21.339844 L 10.398438 21.589844 L 10.59375 21.339844 C 10.59375 21.339844 11.377934 20.336724 14.845703 15.648438 L 15.140625 15.25 L 12.75 15.25 L 12.75 13 L 13 13 L 13 8 L 11.351562 8 C 13.457717 5.1632858 14.478545 3.8092143 14.601562 3.6503906 C 14.724439 3.808916 15.746812 5.1627159 17.853516 8 L 16 8 L 16 14 L 17 14 L 17 9 L 19.84375 9 L 19.253906 8.203125 C 15.785531 3.5140167 14.996094 2.5058594 14.996094 2.5058594 L 14.601562 2.0039062 z " />
</svg>

<svg height="24" width="24" xmlns="http://www.w3.org/2000/svg"><path style="color:#000;fill:gray;-inkscape-stroke:none" d="m14.602 2.004-.393.502s-.788 1.008-4.256 5.697L9.363 9H12v4h.25v2.75h1.898c-2.738 3.696-3.682 4.933-3.75 5.02a466.676 466.676 0 0 1-3.752-5.02H8.75V10h-.5v5.25H5.652l.295.398c3.468 4.689 4.254 5.692 4.254 5.692l.197.25.196-.25s.784-1.003 4.252-5.692l.295-.398H12.75V13H13V8h-1.648a544.267 544.267 0 0 1 3.25-4.35A511.12 511.12 0 0 1 17.854 8H16v6h1V9h2.844l-.59-.797c-3.468-4.689-4.258-5.697-4.258-5.697l-.394-.502z"/></svg>
